src/images/delete-icon.svg

<svg width="16" height="16" viewBox="0 0 16 16" fill="none" xmlns="http://www.w3.org/2000/svg">
<g id="d8">
<path id="icon__COLOR:icon-main" fill-rule="evenodd" clip-rule="evenodd" d="M7.99951 8.94287L10.3566 11.2999L11.4172 10.2393L9.06017 7.88221L11.2994 5.64295L10.2388 4.58229L7.99951 6.82155L5.76037 4.58241L4.69971 5.64307L6.93885 7.88221L4.58192 10.2391L5.64258 11.2998L7.99951 8.94287Z" fill="black"/>
</g>
</svg>

<svg width="16" height="16" fill="none" xmlns="http://www.w3.org/2000/svg"><path fill-rule="evenodd" clip-rule="evenodd" d="m8 8.943 2.357 2.357 1.06-1.06L9.06 7.881l2.24-2.239-1.061-1.06-2.24 2.239-2.239-2.24L4.7 5.643l2.239 2.24-2.357 2.356 1.06 1.06L8 8.944z" fill="#000"/></svg>
